src/symbols/av-symbol/23E9.svg

<svg id="emoji" viewBox="0 0 72 72" xmlns="http://www.w3.org/2000/svg">
  <g id="grid">
    <path fill="#b3b3b3" d="M68,4V68H4V4H68m4-4H0V72H72V0Z"/>
    <path fill="none" stroke="#00a5ff" stroke-miterlimit="10" stroke-width="0.1" d="M12.923,10.9583H59.0769A1.9231,1.9231,0,0,1,61,12.8814V59.0352a1.9231,1.9231,0,0,1-1.9231,1.9231H12.9231A1.9231,1.9231,0,0,1,11,59.0352V12.8813A1.923,1.923,0,0,1,12.923,10.9583Z"/>
    <rect x="16" y="4" rx="2.2537" width="40" height="64" fill="none" stroke="#00a5ff" stroke-miterlimit="10" stroke-width="0.1"/>
    <rect x="16" y="4" rx="2.2537" width="40" height="64" transform="translate(72) rotate(90)" fill="none" stroke="#00a5ff" stroke-miterlimit="10" stroke-width="0.1"/>
    <circle cx="36" cy="36" r="29" fill="none" stroke="#00a5ff" stroke-miterlimit="10" stroke-width="0.1"/>
  </g>
  <g id="color"/>
  <g id="hair"/>
  <g id="skin"/>
  <g id="skin-shadow"/>
  <g id="line">
    <path fill="none" stroke="#000000" stroke-linecap="round" stroke-linejoin="round" stroke-miterlimit="10" stroke-width="2" d="M31,17l18.7948,9.1111l15.817,7.6675c1.8509,0.8972,1.8509,3.5456,0,4.4428l-15.817,7.6675L31,55"/>
    <path fill="none" stroke="#000000" stroke-linecap="round" stroke-linejoin="round" stroke-miterlimit="10" stroke-width="2" d="M5,17l18.8824,9.1111l15.8908,7.6675c1.8595,0.8972,1.8595,3.5456,0,4.4428L23.8824,45.889L5,55"/>
  </g>
</svg>

<svg viewBox="0 0 72 72" xmlns="http://www.w3.org/2000/svg"><path fill="#b3b3b3" d="M68 4v64H4V4h64m4-4H0v72h72V0z"/><path fill="none" stroke="#00a5ff" stroke-miterlimit="10" stroke-width=".1" d="M12.923 10.958h46.154A1.923 1.923 0 0161 12.881v46.154a1.923 1.923 0 01-1.923 1.923H12.923A1.923 1.923 0 0111 59.035V12.881a1.923 1.923 0 011.923-1.923z"/><rect x="16" y="4" rx="2.254" width="40" height="64" fill="none" stroke="#00a5ff" stroke-miterlimit="10" stroke-width=".1"/><rect x="16" y="4" rx="2.254" width="40" height="64" transform="rotate(90 36 36)" fill="none" stroke="#00a5ff" stroke-miterlimit="10" stroke-width=".1"/><circle cx="36" cy="36" r="29" fill="none" stroke="#00a5ff" stroke-miterlimit="10" stroke-width=".1"/><g stroke-linecap="round" stroke-miterlimit="10" stroke-width="6" stroke="#fff" fill="none" stroke-linejoin="round"><path d="M31 17l18.795 9.111 15.817 7.668c1.85.897 1.85 3.545 0 4.442L49.795 45.89 31 55"/><path d="M5 17l18.882 9.111 15.891 7.668c1.86.897 1.86 3.545 0 4.442l-15.89 7.668L5 55"/></g><g fill="none" stroke="#000" stroke-linecap="round" stroke-linejoin="round" stroke-miterlimit="10" stroke-width="2"><path d="M31 17l18.795 9.111 15.817 7.668c1.85.897 1.85 3.545 0 4.442L49.795 45.89 31 55"/><path d="M5 17l18.882 9.111 15.891 7.668c1.86.897 1.86 3.545 0 4.442l-15.89 7.668L5 55"/></g></svg>
